Newaita-dark/apps/64/wmtweaks.svg

<svg height="64" viewBox="0 0 64 64" width="64" xmlns="http://www.w3.org/2000/svg" xmlns:xlink="http://www.w3.org/1999/xlink"><linearGradient id="a" gradientUnits="userSpaceOnUse" x1="31.75304" x2="31.75304" y1="56.067868" y2="58.71395600006"><stop offset="0" stop-opacity=".27451"/><stop offset="1" stop-opacity="0"/></linearGradient><linearGradient id="b"><stop offset="0" stop-opacity=".313726"/><stop offset=".222222" stop-opacity=".27451"/><stop offset="1" stop-opacity="0"/></linearGradient><radialGradient id="c" cx="450.908936" cy="189.579361" gradientTransform="matrix(.00000035 -.156265 -.281277 -.0000002 106.907382 127.190661)" gradientUnits="userSpaceOnUse" r="21.166656" xlink:href="#b"/><radialGradient id="d" cx="450.908936" cy="189.579361" gradientTransform="matrix(-.00000035 .156265 .281277 .0000002 -43.401323 -15.054962)" gradientUnits="userSpaceOnUse" r="21.166656" xlink:href="#b"/><radialGradient id="e" cx="450.908936" cy="189.579361" gradientTransform="matrix(-.00000035 -.156265 .281277 -.0000002 -43.401323 127.190661)" gradientUnits="userSpaceOnUse" r="21.166656" xlink:href="#b"/><radialGradient id="f" cx="450.908936" cy="189.579361" gradientTransform="matrix(.00000035 .156265 -.281277 .0000002 106.907378 -15.054963)" gradientUnits="userSpaceOnUse" r="21.166656" xlink:href="#b"/><linearGradient id="g" gradientTransform="matrix(.150699 0 0 .434824 -11.708026 67.282696)" gradientUnits="userSpaceOnUse" x1="306.916656" x2="305.954559" y1="-25.791676" y2="-135.329163"><stop offset="0" stop-color="#bdbdbd"/><stop offset="1" stop-color="#e0e0e0"/></linearGradient><linearGradient id="h" gradientUnits="userSpaceOnUse" x1="46.96793821653" x2="46.96793821653" y1="56.06832851674" y2="32.25307625"><stop offset="0" stop-color="#ff7043"/><stop offset="1" stop-color="#ff8a65"/></linearGradient><linearGradient id="i" gradientTransform="matrix(4.556143 0 0 13.146184 -353.972656 2034.180176)" gradientUnits="userSpaceOnUse" x1="306.916656" x2="305.954559" y1="-25.791676" y2="-135.329163"><stop offset="0" stop-color="#424242"/><stop offset="1" stop-color="#616161"/></linearGradient><linearGradient id="j" gradientUnits="userSpaceOnUse" x1="333.37491775" x2="333.37491775" y1="-121.04159691667" y2="-89.29164325"><stop offset="0" stop-color="#66bb6a"/><stop offset="1" stop-color="#81c784"/></linearGradient><linearGradient id="k" gradientUnits="userSpaceOnUse" x1="386.29151025" x2="386.29151025" y1="-121.04167408333" y2="-89.29163575"><stop offset="0" stop-color="#ffd54f"/><stop offset="1" stop-color="#ffe082"/></linearGradient><linearGradient id="l" gradientUnits="userSpaceOnUse" x1="439.208298" x2="439.208298" y1="-121.041682" y2="-89.291686"><stop offset="0" stop-color="#e57373"/><stop offset="1" stop-color="#ef9a9a"/></linearGradient><path d="m9.261719 56.066406h44.984375v2.648438h-44.984375zm0 0" fill="url(#a)"/><path d="m54.246094 56.066406h5.289062v-2.644531h-5.289062zm0 0" fill="url(#c)"/><path d="m9.261719 56.066406h-5.292969v2.648438h5.292969zm0 0" fill="url(#d)"/><path d="m9.261719 56.066406h-5.292969v-2.644531h5.292969zm0 0" fill="url(#e)"/><path d="m54.246094 56.066406h5.289062v2.648438h-5.289062zm0 0" fill="url(#f)"/><path d="m6.613281 8.4375h50.277344c1.460937 0 2.644531 1.183594 2.644531 2.648438v42.335937c0 1.460937-1.183594 2.644531-2.644531 2.644531h-50.277344c-1.460937 0-2.644531-1.183594-2.644531-2.644531v-42.335937c0-1.464844 1.183594-2.648438 2.644531-2.648438zm0 0" fill="url(#g)"/><path d="m3.96875 19.023438h55.566406v1.320312h-55.566406zm0 0" fill="#0a0d0e" fill-opacity=".235294"/><path d="m46.96875 32.253906c1.652344 0 2.511719 6.828125 3.847656 7.800782 1.339844.96875 8.097656-.324219 8.609375 1.25.511719 1.570312-5.71875 4.5-6.230469 6.070312-.507812 1.570312 2.808594 7.601562 1.472657 8.574219-1.339844.96875-6.046875-4.046875-7.699219-4.046875s-6.363281 5.015625-7.699219 4.046875c-1.335937-.972657 1.980469-7.003907 1.46875-8.574219-.507812-1.570312-6.738281-4.5-6.226562-6.070312.507812-1.574219 7.269531-.28125 8.605469-1.25 1.339843-.972657 2.199218-7.800782 3.851562-7.800782zm0 0" fill="url(#h)"/><path d="m6.613281 56.09375c-1.464843 0-2.644531-1.179688-2.644531-2.644531v-.6875c0 1.464843 1.179688 2.644531 2.644531 2.644531h50.277344c1.464844 0 2.644531-1.179688 2.644531-2.644531v.6875c0 1.464843-1.179687 2.644531-2.644531 2.644531zm0 0" fill-opacity=".235294"/><path d="m199.941547 255.093763c-44.287112 0-79.952999 35.665888-79.952999 80.071098v239.977096h1679.957771v-239.977096c0-44.40521-35.665888-80.071098-79.952999-80.071098zm0 0" fill="url(#i)" stroke="#212121" stroke-linecap="round" stroke-width="11.338583" transform="scale(.0330761)"/><path d="m6.613281 8.589844c-1.464843 0-2.644531 1.179687-2.644531 2.648437v.6875c0-1.46875 1.179688-2.648437 2.644531-2.648437h50.277344c1.464844 0 2.644531 1.179687 2.644531 2.648437v-.6875c0-1.46875-1.179687-2.648437-2.644531-2.648437zm0 0" fill="#fff" fill-opacity=".392157"/><path d="m6.613281 8.25c-1.566406 0-2.832031 1.269531-2.832031 2.835938v42.335937c0 1.566406 1.265625 2.832031 2.832031 2.832031h50.277344c1.566406 0 2.832031-1.265625 2.832031-2.832031v-42.335937c0-1.566407-1.265625-2.835938-2.832031-2.835938zm0 .375h50.277344c1.367187 0 2.457031 1.09375 2.457031 2.460938v42.335937c0 1.367187-1.089844 2.457031-2.457031 2.457031h-50.277344c-1.363281 0-2.457031-1.089844-2.457031-2.457031v-42.335937c0-1.367188 1.09375-2.460938 2.457031-2.460938zm0 0" fill="#212121"/><g stroke="#212121" stroke-linecap="round" stroke-width="3" transform="matrix(.125012 0 0 .125012 0 26.877566)"><path d="m333.374414-121.040223c8.780412 0 15.873484 7.093073 15.873484 15.873484 0 8.780412-7.093072 15.873485-15.873484 15.873485-8.780411 0-15.873484-7.093073-15.873484-15.873485 0-8.780411 7.093073-15.873484 15.873484-15.873484zm0 0" fill="url(#j)"/><path d="m386.30686-121.040223c8.749164 0 15.873484 7.093073 15.873484 15.873484 0 8.780412-7.12432 15.873485-15.873484 15.873485-8.780412 0-15.904732-7.093073-15.904732-15.873485 0-8.780411 7.12432-15.873484 15.904732-15.873484zm0 0" fill="url(#k)"/><path d="m439.208058-121.040223c8.780411 0 15.873484 7.093073 15.873484 15.873484 0 8.780412-7.093073 15.873485-15.873484 15.873485-8.780412 0-15.873484-7.093073-15.873484-15.873485 0-8.780411 7.093072-15.873484 15.873484-15.873484zm0 0" fill="url(#l)"/></g><path d="m46.96875 32.253906c-1.652344 0-2.511719 6.828125-3.851562 7.800782-1.335938.96875-8.097657-.324219-8.605469 1.25-.054688.167968-.03125.351562.050781.546874.804688-1.394531 7.253906-.191406 8.554688-1.136718 1.339843-.972656 2.199218-7.800782 3.851562-7.800782s2.511719 6.828126 3.847656 7.800782c1.304688.945312 7.753906-.257813 8.558594 1.136718.082031-.195312.105469-.378906.050781-.546874-.511719-1.574219-7.269531-.28125-8.609375-1.25-1.335937-.972657-2.195312-7.800782-3.847656-7.800782zm-6.230469 16.109375c-.328125 1.953125-1.988281 5.488281-1.769531 7 .179688-1.714843 1.480469-4.632812 1.769531-6.339843v.003906c.011719.039062.023438.074218.03125.117187.039063-.316406.035157-.582031-.03125-.777343zm12.460938 0s0 .003907-.003907.003907c-.0625.195312-.066406.460937-.027343.777343.007812-.042969.015625-.078125.027343-.117187.003907 0 .003907-.003906.003907-.003906.285156 1.707031 1.589843 4.625 1.765625 6.339843.222656-1.511719-1.4375-5.046875-1.765625-7zm0 0" fill="#fff" fill-opacity=".392157"/><path d="m34.777344 42.152344c-.132813.097656-.222656.210937-.265625.347656-.503907 1.542969 5.488281 4.390625 6.191406 5.980469.097656-.488281.125-.894531.035156-1.164063-.421875-1.304687-4.78125-3.542968-5.960937-5.164062zm24.382812 0c-1.183594 1.621094-5.539062 3.859375-5.964844 5.164062-.085937.269532-.0625.675782.035157 1.164063.707031-1.589844 6.695312-4.4375 6.195312-5.980469-.042969-.136719-.136719-.25-.265625-.347656zm-12.191406 9.6875c-1.652344 0-6.363281 5.019531-7.699219 4.046875-.117187-.082031-.195312-.203125-.25-.355469-.03125.1875-.054687.371094-.0625.535156h3.226563c1.78125-1.230468 3.8125-2.96875 4.785156-2.96875s3.003906 1.738282 4.785156 2.96875h3.226563c-.011719-.164062-.03125-.347656-.066407-.535156-.050781.152344-.132812.273438-.246093.355469-1.339844.972656-6.046875-4.046875-7.699219-4.046875zm0 0" fill-opacity=".235294"/><path d="m375.714121 43.006612c13.217488 0 20.091831 54.619784 30.778311 62.400291 10.717726 7.74926 64.775064-2.593503 68.868423 9.999045 4.093359 12.5613-45.745631 35.996562-49.83899 48.557863-4.062112 12.5613 22.466604 60.806693 11.780125 68.5872-10.717727 7.74926-48.370381-32.371909-61.587869-32.371909s-50.901389 40.121169-61.587869 32.371909c-10.686479-7.780507 15.842238-56.0259 11.748878-68.5872-4.062112-12.561301-53.901102-35.996563-49.807743-48.557863 4.062112-12.592548 58.150697-2.249785 68.837176-9.999045 10.717727-7.780507 17.59207-62.400291 30.809558-62.400291zm0 0" fill="none" stroke="#212121" stroke-linecap="round" stroke-linejoin="round" stroke-width="3" transform="matrix(.125012 0 0 .125012 0 26.877566)"/></svg>

<?xml version="1.0" encoding="UTF-8"?>
<svg xmlns="http://www.w3.org/2000/svg" xmlns:xlink="http://www.w3.org/1999/xlink" width="64px" height="64px" viewBox="0 0 64 64" version="1.1">
<defs>
<linearGradient id="linear0" gradientUnits="userSpaceOnUse" x1="254" y1="233.5" x2="254" y2="254.666672" gradientTransform="matrix(0.125012,0,0,0.125012,-0.00000763012,26.877566)">
<stop offset="0" style="stop-color:rgb(0%,0%,0%);stop-opacity:0.27451;"/>
<stop offset="1" style="stop-color:rgb(0%,0%,0%);stop-opacity:0;"/>
</linearGradient>
<radialGradient id="radial0" gradientUnits="userSpaceOnUse" cx="450.908936" cy="189.579361" fx="450.908936" fy="189.579361" r="21.166656" gradientTransform="matrix(0.000000348341,-0.156265,-0.281277,-0.000000203077,106.907382,127.190661)">
<stop offset="0" style="stop-color:rgb(0%,0%,0%);stop-opacity:0.313726;"/>
<stop offset="0.222222" style="stop-color:rgb(0%,0%,0%);stop-opacity:0.27451;"/>
<stop offset="1" style="stop-color:rgb(0%,0%,0%);stop-opacity:0;"/>
</radialGradient>
<radialGradient id="radial1" gradientUnits="userSpaceOnUse" cx="450.908936" cy="189.579361" fx="450.908936" fy="189.579361" r="21.166656" gradientTransform="matrix(-0.000000348341,0.156265,0.281277,0.000000203077,-43.401323,-15.054962)">
<stop offset="0" style="stop-color:rgb(0%,0%,0%);stop-opacity:0.313726;"/>
<stop offset="0.222222" style="stop-color:rgb(0%,0%,0%);stop-opacity:0.27451;"/>
<stop offset="1" style="stop-color:rgb(0%,0%,0%);stop-opacity:0;"/>
</radialGradient>
<radialGradient id="radial2" gradientUnits="userSpaceOnUse" cx="450.908936" cy="189.579361" fx="450.908936" fy="189.579361" r="21.166656" gradientTransform="matrix(-0.000000348341,-0.156265,0.281277,-0.000000203077,-43.401323,127.190661)">
<stop offset="0" style="stop-color:rgb(0%,0%,0%);stop-opacity:0.313726;"/>
<stop offset="0.222222" style="stop-color:rgb(0%,0%,0%);stop-opacity:0.27451;"/>
<stop offset="1" style="stop-color:rgb(0%,0%,0%);stop-opacity:0;"/>
</radialGradient>
<radialGradient id="radial3" gradientUnits="userSpaceOnUse" cx="450.908936" cy="189.579361" fx="450.908936" fy="189.579361" r="21.166656" gradientTransform="matrix(0.000000348341,0.156265,-0.281277,0.000000203077,106.907378,-15.054963)">
<stop offset="0" style="stop-color:rgb(0%,0%,0%);stop-opacity:0.313726;"/>
<stop offset="0.222222" style="stop-color:rgb(0%,0%,0%);stop-opacity:0.27451;"/>
<stop offset="1" style="stop-color:rgb(0%,0%,0%);stop-opacity:0;"/>
</radialGradient>
<linearGradient id="linear1" gradientUnits="userSpaceOnUse" x1="306.916656" y1="-25.791676" x2="305.954559" y2="-135.329163" gradientTransform="matrix(0.150699,0,0,0.434824,-11.708026,67.282696)">
<stop offset="0" style="stop-color:rgb(74.117649%,74.117649%,74.117649%);stop-opacity:1;"/>
<stop offset="1" style="stop-color:rgb(87.843138%,87.843138%,87.843138%);stop-opacity:1;"/>
</linearGradient>
<linearGradient id="linear2" gradientUnits="userSpaceOnUse" x1="370.416656" y1="222.916672" x2="370.416656" y2="11.25" gradientTransform="matrix(0.112513,0,0,0.112513,5.291249,30.987305)">
<stop offset="0" style="stop-color:rgb(100%,43.921569%,26.274511%);stop-opacity:1;"/>
<stop offset="1" style="stop-color:rgb(100%,54.11765%,39.607844%);stop-opacity:1;"/>
</linearGradient>
<linearGradient id="linear3" gradientUnits="userSpaceOnUse" x1="306.916656" y1="-25.791676" x2="305.954559" y2="-135.329163" gradientTransform="matrix(4.556143,0,0,13.146184,-353.972656,2034.180176)">
<stop offset="0" style="stop-color:rgb(25.882354%,25.882354%,25.882354%);stop-opacity:1;"/>
<stop offset="1" style="stop-color:rgb(38.039216%,38.039216%,38.039216%);stop-opacity:1;"/>
</linearGradient>
<linearGradient id="linear4" gradientUnits="userSpaceOnUse" x1="349.25" y1="-158.083328" x2="349.25" y2="-115.75" gradientTransform="matrix(0.749999,0,0,0.749999,71.437767,-2.479259)">
<stop offset="0" style="stop-color:rgb(40.000001%,73.333335%,41.568628%);stop-opacity:1;"/>
<stop offset="1" style="stop-color:rgb(50.588238%,78.039217%,51.764709%);stop-opacity:1;"/>
</linearGradient>
<linearGradient id="linear5" gradientUnits="userSpaceOnUse" x1="349.25" y1="-158.083328" x2="349.25" y2="-115.75" gradientTransform="matrix(0.750001,0,0,0.750001,124.353661,-2.47902)">
<stop offset="0" style="stop-color:rgb(100%,83.529413%,30.980393%);stop-opacity:1;"/>
<stop offset="1" style="stop-color:rgb(100%,87.843138%,50.980395%);stop-opacity:1;"/>
</linearGradient>
<linearGradient id="linear6" gradientUnits="userSpaceOnUse" x1="349.25" y1="-158.083328" x2="349.25" y2="-115.75" gradientTransform="matrix(0.75,0,0,0.75,177.270798,-2.479186)">
<stop offset="0" style="stop-color:rgb(89.803922%,45.09804%,45.09804%);stop-opacity:1;"/>
<stop offset="1" style="stop-color:rgb(93.725491%,60.392159%,60.392159%);stop-opacity:1;"/>
</linearGradient>
</defs>
<g id="surface1">
<path style=" stroke:none;fill-rule:nonzero;fill:url(#linear0);" d="M 9.261719 56.066406 L 54.246094 56.066406 L 54.246094 58.714844 L 9.261719 58.714844 Z M 9.261719 56.066406 "/>
<path style=" stroke:none;fill-rule:nonzero;fill:url(#radial0);" d="M 54.246094 56.066406 L 59.535156 56.066406 L 59.535156 53.421875 L 54.246094 53.421875 Z M 54.246094 56.066406 "/>
<path style=" stroke:none;fill-rule:nonzero;fill:url(#radial1);" d="M 9.261719 56.066406 L 3.96875 56.066406 L 3.96875 58.714844 L 9.261719 58.714844 Z M 9.261719 56.066406 "/>
<path style=" stroke:none;fill-rule:nonzero;fill:url(#radial2);" d="M 9.261719 56.066406 L 3.96875 56.066406 L 3.96875 53.421875 L 9.261719 53.421875 Z M 9.261719 56.066406 "/>
<path style=" stroke:none;fill-rule:nonzero;fill:url(#radial3);" d="M 54.246094 56.066406 L 59.535156 56.066406 L 59.535156 58.714844 L 54.246094 58.714844 Z M 54.246094 56.066406 "/>
<path style=" stroke:none;fill-rule:nonzero;fill:url(#linear1);" d="M 6.613281 8.4375 L 56.890625 8.4375 C 58.351562 8.4375 59.535156 9.621094 59.535156 11.085938 L 59.535156 53.421875 C 59.535156 54.882812 58.351562 56.066406 56.890625 56.066406 L 6.613281 56.066406 C 5.152344 56.066406 3.96875 54.882812 3.96875 53.421875 L 3.96875 11.085938 C 3.96875 9.621094 5.152344 8.4375 6.613281 8.4375 Z M 6.613281 8.4375 "/>
<path style=" stroke:none;fill-rule:nonzero;fill:rgb(3.921569%,5.098039%,5.490196%);fill-opacity:0.235294;" d="M 3.96875 19.023438 L 59.535156 19.023438 L 59.535156 20.34375 L 3.96875 20.34375 Z M 3.96875 19.023438 "/>
<path style=" stroke:none;fill-rule:nonzero;fill:url(#linear2);" d="M 46.96875 32.253906 C 48.621094 32.253906 49.480469 39.082031 50.816406 40.054688 C 52.15625 41.023438 58.914062 39.730469 59.425781 41.304688 C 59.9375 42.875 53.707031 45.804688 53.195312 47.375 C 52.6875 48.945312 56.003906 54.976562 54.667969 55.949219 C 53.328125 56.917969 48.621094 51.902344 46.96875 51.902344 C 45.316406 51.902344 40.605469 56.917969 39.269531 55.949219 C 37.933594 54.976562 41.25 48.945312 40.738281 47.375 C 40.230469 45.804688 34 42.875 34.511719 41.304688 C 35.019531 39.730469 41.78125 41.023438 43.117188 40.054688 C 44.457031 39.082031 45.316406 32.253906 46.96875 32.253906 Z M 46.96875 32.253906 "/>
<path style=" stroke:none;fill-rule:nonzero;fill:rgb(0%,0%,0%);fill-opacity:0.235294;" d="M 6.613281 56.09375 C 5.148438 56.09375 3.96875 54.914062 3.96875 53.449219 L 3.96875 52.761719 C 3.96875 54.226562 5.148438 55.40625 6.613281 55.40625 L 56.890625 55.40625 C 58.355469 55.40625 59.535156 54.226562 59.535156 52.761719 L 59.535156 53.449219 C 59.535156 54.914062 58.355469 56.09375 56.890625 56.09375 Z M 6.613281 56.09375 "/>
<path style="fill-rule:nonzero;fill:url(#linear3);stroke-width:11.338583;stroke-linecap:round;stroke-linejoin:miter;stroke:rgb(12.941177%,12.941177%,12.941177%);stroke-opacity:1;stroke-miterlimit:4;" d="M 199.941547 255.093763 C 155.654435 255.093763 119.988548 290.759651 119.988548 335.164861 L 119.988548 575.141957 L 1799.946319 575.141957 L 1799.946319 335.164861 C 1799.946319 290.759651 1764.280431 255.093763 1719.99332 255.093763 Z M 199.941547 255.093763 " transform="matrix(0.0330761,0,0,0.0330761,0,0)"/>
<path style=" stroke:none;fill-rule:nonzero;fill:rgb(100%,100%,100%);fill-opacity:0.392157;" d="M 6.613281 8.589844 C 5.148438 8.589844 3.96875 9.769531 3.96875 11.238281 L 3.96875 11.925781 C 3.96875 10.457031 5.148438 9.277344 6.613281 9.277344 L 56.890625 9.277344 C 58.355469 9.277344 59.535156 10.457031 59.535156 11.925781 L 59.535156 11.238281 C 59.535156 9.769531 58.355469 8.589844 56.890625 8.589844 Z M 6.613281 8.589844 "/>
<path style=" stroke:none;fill-rule:nonzero;fill:rgb(12.941177%,12.941177%,12.941177%);fill-opacity:1;" d="M 6.613281 8.25 C 5.046875 8.25 3.78125 9.519531 3.78125 11.085938 L 3.78125 53.421875 C 3.78125 54.988281 5.046875 56.253906 6.613281 56.253906 L 56.890625 56.253906 C 58.457031 56.253906 59.722656 54.988281 59.722656 53.421875 L 59.722656 11.085938 C 59.722656 9.519531 58.457031 8.25 56.890625 8.25 Z M 6.613281 8.625 L 56.890625 8.625 C 58.257812 8.625 59.347656 9.71875 59.347656 11.085938 L 59.347656 53.421875 C 59.347656 54.789062 58.257812 55.878906 56.890625 55.878906 L 6.613281 55.878906 C 5.25 55.878906 4.15625 54.789062 4.15625 53.421875 L 4.15625 11.085938 C 4.15625 9.71875 5.25 8.625 6.613281 8.625 Z M 6.613281 8.625 "/>
<path style="fill-rule:nonzero;fill:url(#linear4);stroke-width:3;stroke-linecap:round;stroke-linejoin:miter;stroke:rgb(12.941177%,12.941177%,12.941177%);stroke-opacity:1;stroke-miterlimit:4;" d="M 333.374414 -121.040223 C 342.154826 -121.040223 349.247898 -113.94715 349.247898 -105.166739 C 349.247898 -96.386327 342.154826 -89.293254 333.374414 -89.293254 C 324.594003 -89.293254 317.50093 -96.386327 317.50093 -105.166739 C 317.50093 -113.94715 324.594003 -121.040223 333.374414 -121.040223 Z M 333.374414 -121.040223 " transform="matrix(0.125012,0,0,0.125012,0,26.877566)"/>
<path style="fill-rule:nonzero;fill:url(#linear5);stroke-width:3;stroke-linecap:round;stroke-linejoin:miter;stroke:rgb(12.941177%,12.941177%,12.941177%);stroke-opacity:1;stroke-miterlimit:4;" d="M 386.30686 -121.040223 C 395.056024 -121.040223 402.180344 -113.94715 402.180344 -105.166739 C 402.180344 -96.386327 395.056024 -89.293254 386.30686 -89.293254 C 377.526448 -89.293254 370.402128 -96.386327 370.402128 -105.166739 C 370.402128 -113.94715 377.526448 -121.040223 386.30686 -121.040223 Z M 386.30686 -121.040223 " transform="matrix(0.125012,0,0,0.125012,0,26.877566)"/>
<path style="fill-rule:nonzero;fill:url(#linear6);stroke-width:3;stroke-linecap:round;stroke-linejoin:miter;stroke:rgb(12.941177%,12.941177%,12.941177%);stroke-opacity:1;stroke-miterlimit:4;" d="M 439.208058 -121.040223 C 447.988469 -121.040223 455.081542 -113.94715 455.081542 -105.166739 C 455.081542 -96.386327 447.988469 -89.293254 439.208058 -89.293254 C 430.427646 -89.293254 423.334574 -96.386327 423.334574 -105.166739 C 423.334574 -113.94715 430.427646 -121.040223 439.208058 -121.040223 Z M 439.208058 -121.040223 " transform="matrix(0.125012,0,0,0.125012,0,26.877566)"/>
<path style=" stroke:none;fill-rule:nonzero;fill:rgb(100%,100%,100%);fill-opacity:0.392157;" d="M 46.96875 32.253906 C 45.316406 32.253906 44.457031 39.082031 43.117188 40.054688 C 41.78125 41.023438 35.019531 39.730469 34.511719 41.304688 C 34.457031 41.472656 34.480469 41.65625 34.5625 41.851562 C 35.367188 40.457031 41.816406 41.660156 43.117188 40.714844 C 44.457031 39.742188 45.316406 32.914062 46.96875 32.914062 C 48.621094 32.914062 49.480469 39.742188 50.816406 40.714844 C 52.121094 41.660156 58.570312 40.457031 59.375 41.851562 C 59.457031 41.65625 59.480469 41.472656 59.425781 41.304688 C 58.914062 39.730469 52.15625 41.023438 50.816406 40.054688 C 49.480469 39.082031 48.621094 32.253906 46.96875 32.253906 Z M 40.738281 48.363281 C 40.410156 50.316406 38.75 53.851562 38.96875 55.363281 C 39.148438 53.648438 40.449219 50.730469 40.738281 49.023438 C 40.738281 49.023438 40.738281 49.027344 40.738281 49.027344 C 40.75 49.066406 40.761719 49.101562 40.769531 49.144531 C 40.808594 48.828125 40.804688 48.5625 40.738281 48.367188 C 40.738281 48.367188 40.738281 48.363281 40.738281 48.363281 Z M 53.199219 48.363281 C 53.199219 48.363281 53.199219 48.367188 53.195312 48.367188 C 53.132812 48.5625 53.128906 48.828125 53.167969 49.144531 C 53.175781 49.101562 53.183594 49.066406 53.195312 49.027344 C 53.199219 49.027344 53.199219 49.023438 53.199219 49.023438 C 53.484375 50.730469 54.789062 53.648438 54.964844 55.363281 C 55.1875 53.851562 53.527344 50.316406 53.199219 48.363281 Z M 53.199219 48.363281 "/>
<path style=" stroke:none;fill-rule:nonzero;fill:rgb(0%,0%,0%);fill-opacity:0.235294;" d="M 34.777344 42.152344 C 34.644531 42.25 34.554688 42.363281 34.511719 42.5 C 34.007812 44.042969 40 46.890625 40.703125 48.480469 C 40.800781 47.992188 40.828125 47.585938 40.738281 47.316406 C 40.316406 46.011719 35.957031 43.773438 34.777344 42.152344 Z M 59.160156 42.152344 C 57.976562 43.773438 53.621094 46.011719 53.195312 47.316406 C 53.109375 47.585938 53.132812 47.992188 53.230469 48.480469 C 53.9375 46.890625 59.925781 44.042969 59.425781 42.5 C 59.382812 42.363281 59.289062 42.25 59.160156 42.152344 Z M 46.96875 51.839844 C 45.316406 51.839844 40.605469 56.859375 39.269531 55.886719 C 39.152344 55.804688 39.074219 55.683594 39.019531 55.53125 C 38.988281 55.71875 38.964844 55.902344 38.957031 56.066406 L 42.183594 56.066406 C 43.964844 54.835938 45.996094 53.097656 46.96875 53.097656 C 47.941406 53.097656 49.972656 54.835938 51.753906 56.066406 L 54.980469 56.066406 C 54.96875 55.902344 54.949219 55.71875 54.914062 55.53125 C 54.863281 55.683594 54.78125 55.804688 54.667969 55.886719 C 53.328125 56.859375 48.621094 51.839844 46.96875 51.839844 Z M 46.96875 51.839844 "/>
<path style="fill:none;stroke-width:3;stroke-linecap:round;stroke-linejoin:round;stroke:rgb(12.941177%,12.941177%,12.941177%);stroke-opacity:1;stroke-miterlimit:4;" d="M 375.714121 43.006612 C 388.931609 43.006612 395.805952 97.626396 406.492432 105.406903 C 417.210158 113.156163 471.267496 102.8134 475.360855 115.405948 C 479.454214 127.967248 429.615224 151.40251 425.521865 163.963811 C 421.459753 176.525111 447.988469 224.770504 437.30199 232.551011 C 426.584263 240.300271 388.931609 200.179102 375.714121 200.179102 C 362.496633 200.179102 324.812732 240.300271 314.126252 232.551011 C 303.439773 224.770504 329.96849 176.525111 325.87513 163.963811 C 321.813018 151.40251 271.974028 127.967248 276.067387 115.405948 C 280.129499 102.8134 334.218084 113.156163 344.904563 105.406903 C 355.62229 97.626396 362.496633 43.006612 375.714121 43.006612 Z M 375.714121 43.006612 " transform="matrix(0.125012,0,0,0.125012,0,26.877566)"/>
</g>
</svg>
